static/images/clients/svg/spotify.svg

<svg fill="none" height="32" viewBox="0 0 107 32" width="107" xmlns="http://www.w3.org/2000/svg"><path d="m16.0003 0c-8.83654 0-16.0003 7.16357-16.0003 16.0001 0 8.8369 7.16376 15.9999 16.0003 15.9999 8.8375 0 16.0005-7.163 16.0005-15.9999 0-8.83596-7.163-15.99933575-16.0007-15.99933575zm7.3376 23.0767c-.2866.47-.9018.6191-1.3718.3306-3.7567-2.2947-8.486-2.8144-14.05547-1.5419-.5367.1223-1.07168-.214-1.19396-.7509-.12285-.5369.21208-1.0719.75012-1.1941 6.09491-1.3925 11.32301-.793 15.54061 1.7845.47.2885.619.9018.3305 1.3718zm1.9584-4.3566c-.3611.5869-1.1292.7723-1.7157.4112-4.3009-2.6436-10.8569-3.4092-15.94396-1.865-.65974.1993-1.35655-.1726-1.55679-.8312-.1987-.6597.1733-1.3552.8319-1.5558 5.81085-1.7631 13.03475-.9091 17.97375 2.126.5866.3611.7719 1.1292.4108 1.715zm.1682-4.5366c-5.1569-3.063-13.665-3.3446-18.58848-1.8503-.79063.2398-1.62672-.2065-1.86632-.9972-.23959-.791.20635-1.6265.99755-1.86686 5.65185-1.71576 15.04745-1.38426 20.98455 2.14026.7127.4221.9458 1.3405.5235 2.0507-.4203.7112-1.3412.9456-2.0501.5234zm18.067.5869c-2.7628-.6588-3.2538-1.1212-3.2538-2.0927 0-.9179.8636-1.5356 2.1494-1.5356 1.2458 0 2.48.4691 3.7755 1.4347.0382.0292.0879.0409.1356.0332.0497-.0072.0917-.0338.1204-.0737l1.3489-1.9015c.0554-.0783.0401-.1863-.0344-.2461-1.5419-1.23673-3.2767-1.83801-5.3058-1.83801-2.9826 0-5.0671 1.79011-5.0671 4.35131 0 2.7465 1.7979 3.7191 4.9047 4.4697 2.6424.609 3.0895 1.1191 3.0895 2.0309 0 1.0107-.9019 1.6393-2.3539 1.6393-1.6126 0-2.9291-.5445-4.4003-1.817-.0363-.0325-.0859-.0459-.1318-.044-.0497.0039-.0936.0268-.1242.0631l-1.5132 1.7998c-.0631.0764-.0554.1872.0172.2522 1.7119 1.5285 3.8174 2.3348 6.0911 2.3348 3.2137 0 5.2906-1.7559 5.2906-4.4747.0057-2.2941-1.368-3.5647-4.7327-4.3832zm12.0103-2.7246c-1.3929 0-2.5354.5488-3.4793 1.6732v-1.2656c0-.1-.0802-.1813-.1796-.1813h-2.4743c-.0993 0-.1796.0813-.1796.1813v14.0625c0 .0993.0803.1815.1796.1815h2.4743c.0994 0 .1796-.0822.1796-.1815v-4.4384c.9439 1.0565 2.0864 1.5743 3.4793 1.5743 2.5889 0 5.2103-1.9928 5.2103-5.8024.0038-3.8104-2.6176-5.8038-5.2084-5.8038zm2.3329 5.8036c0 1.9391-1.1942 3.2938-2.9061 3.2938-1.6909 0-2.9672-1.4158-2.9672-3.2938 0-1.8782 1.2763-3.2936 2.9672-3.2936 1.6833-.0002 2.9061 1.3847 2.9061 3.2934zm9.5933-5.8036c-3.3341 0-5.9459 2.5672-5.9459 5.8451 0 3.2427 2.5946 5.782 5.9058 5.782 3.3455 0 5.965-2.5584 5.965-5.8235 0-3.254-2.6023-5.8032-5.9249-5.8032zm0 9.1165c-1.7731 0-3.1105-1.4254-3.1105-3.3138 0-1.8971 1.2916-3.2737 3.0704-3.2737 1.7845 0 3.1296 1.4247 3.1296 3.3151 0 1.8967-1.2992 3.2724-3.0895 3.2724zm13.044-8.8902h-2.7227v-2.78309c0-.09973-.0803-.18113-.1796-.18113h-2.4743c-.0993 0-.1815.0814-.1815.18113v2.78309h-1.1884c-.0994 0-.1796.0813-.1796.1813v2.1259c0 .0998.0802.1814.1796.1814h1.1884v5.5017c0 2.222 1.1063 3.3493 3.2901 3.3493.8866 0 1.6222-.1834 2.3157-.577.0573-.0306.0917-.0917.0917-.1567v-2.0253c0-.0611-.0324-.1203-.0859-.1528-.0535-.0344-.1204-.0363-.1758-.0077-.4758.2389-.9362.3497-1.4521.3497-.7929 0-1.1483-.3611-1.1483-1.1674v-5.1129h2.7227c.0993 0 .1796-.0814.1796-.1813v-2.1258c.0038-.0999-.0765-.1813-.1777-.1813zm9.4844.0108v-.3418c0-1.0055.3859-1.454 1.2495-1.454.5159 0 .9305.1024 1.3948.2572.0573.018.1166.009.1624-.0252.0478-.0342.0745-.0891.0745-.1471v-2.08455c0-.07967-.0496-.15017-.128-.17367-.4891-.14579-1.1158-.29539-2.0558-.29539-2.2833 0-3.4927 1.28663-3.4927 3.71941v.5236h-1.1884c-.0994 0-.1815.0813-.1815.1811v2.1368c0 .0998.0821.1814.1815.1814h1.1884v8.4842c0 .1012.0822.1815.1815.1815h2.4724c.1013 0 .1815-.0803.1815-.1815v-8.4837h2.31l3.5385 8.4837c-.4013.8903-.7968 1.068-1.3356 1.068-.4356 0-.896-.1299-1.3642-.3878-.0439-.023-.0974-.0268-.1433-.0134-.0477.0172-.0878.0516-.107.0974l-.8387 1.84c-.0401.0879-.0058.1891.0783.235.8751.4738 1.6642.6763 2.6405.6763 1.8266 0 2.8373-.8521 3.7258-3.141l4.2912-11.0888c.023-.0558.015-.1189-.019-.1684-.033-.0491-.088-.0787-.147-.0787h-2.576c-.078 0-.1468.0491-.1717.1215l-2.6386 7.5345-2.8888-7.5394c-.0268-.0702-.0937-.1166-.1682-.1166h-4.2263zm-5.4988-.0108h-2.4743c-.0994 0-.1815.0813-.1815.1813v10.7915c0 .1012.0821.1815.1815.1815h2.4743c.0993 0 .1815-.0803.1815-.1815v-10.7908c0-.0999-.0803-.1813-.1815-.1813zm-1.2229-4.91403c-.9801 0-1.7749.7933-1.7749 1.77327 0 .98056.7948 1.77476 1.7749 1.77476.9802 0 1.7731-.7942 1.7731-1.77476 0-.97978-.7948-1.77327-1.7731-1.77327zm21.6703 8.38393c-.978 0-1.74-.7863-1.74-1.741 0-.9548.772-1.75 1.75-1.75s1.74.7861 1.74 1.7401c0 .9547-.772 1.7509-1.75 1.7509zm.01-3.3179c-.892 0-1.567.7089-1.567 1.5769 0 .8676.671 1.5669 1.557 1.5669.893 0 1.567-.7083 1.567-1.5768 0-.8677-.671-1.567-1.557-1.567zm.386 1.746.493.6893h-.417l-.443-.6324h-.38v.6324h-.348v-1.8273h.814c.426 0 .705.2172.705.5829.002.2996-.172.4827-.422.5551zm-.294-.8245h-.453v.578h.453c.225 0 .361-.1106.361-.2893 0-.188-.136-.2887-.361-.2887z" fill="#282828"/></svg>

<svg width="107" height="32" viewBox="0 0 107 32" fill="none" xmlns="http://www.w3.org/2000/svg">
<path d="M16.0003 0C7.16376 0 0 7.16357 0 16.0001C0 24.837 7.16376 32 16.0003 32C24.8378 32 32.0008 24.837 32.0008 16.0001C32.0008 7.16414 24.8378 0.000764253 16.0001 0.000764253L16.0003 0V0ZM23.3379 23.0767C23.0513 23.5467 22.4361 23.6958 21.9661 23.4073C18.2094 21.1126 13.4801 20.5929 7.91063 21.8654C7.37393 21.9877 6.83895 21.6514 6.71667 21.1145C6.59382 20.5776 6.92875 20.0426 7.46679 19.9204C13.5617 18.5279 18.7898 19.1274 23.0074 21.7049C23.4774 21.9934 23.6264 22.6067 23.3379 23.0767V23.0767ZM25.2963 18.7201C24.9352 19.307 24.1671 19.4924 23.5806 19.1313C19.2797 16.4877 12.7237 15.7221 7.63664 17.2663C6.9769 17.4656 6.28009 17.0937 6.07985 16.4351C5.88115 15.7754 6.25315 15.0799 6.91175 14.8793C12.7226 13.1162 19.9465 13.9702 24.8855 17.0053C25.4721 17.3664 25.6574 18.1345 25.2963 18.7203V18.7201ZM25.4645 14.1835C20.3076 11.1205 11.7995 10.8389 6.87602 12.3332C6.08539 12.573 5.2493 12.1267 5.0097 11.336C4.77011 10.545 5.21605 9.7095 6.00725 9.46914C11.6591 7.75338 21.0547 8.08488 26.9918 11.6094C27.7045 12.0315 27.9376 12.9499 27.5153 13.6601C27.095 14.3713 26.1741 14.6057 25.4652 14.1835H25.4645ZM43.5315 14.7704C40.7687 14.1116 40.2777 13.6492 40.2777 12.6777C40.2777 11.7598 41.1413 11.1421 42.4271 11.1421C43.6729 11.1421 44.9071 11.6112 46.2026 12.5768C46.2408 12.606 46.2905 12.6177 46.3382 12.61C46.3879 12.6028 46.4299 12.5762 46.4586 12.5363L47.8075 10.6348C47.8629 10.5565 47.8476 10.4485 47.7731 10.3887C46.2312 9.15197 44.4964 8.55069 42.4673 8.55069C39.4847 8.55069 37.4002 10.3408 37.4002 12.902C37.4002 15.6485 39.1981 16.6211 42.3049 17.3717C44.9473 17.9807 45.3944 18.4908 45.3944 19.4026C45.3944 20.4133 44.4925 21.0419 43.0405 21.0419C41.4279 21.0419 40.1114 20.4974 38.6402 19.2249C38.6039 19.1924 38.5543 19.179 38.5084 19.1809C38.4587 19.1848 38.4148 19.2077 38.3842 19.244L36.871 21.0438C36.8079 21.1202 36.8156 21.231 36.8882 21.296C38.6001 22.8245 40.7056 23.6308 42.9793 23.6308C46.193 23.6308 48.2699 21.8749 48.2699 19.1561C48.2756 16.862 46.9019 15.5914 43.5372 14.7729L43.5315 14.7704V14.7704ZM55.5418 12.0458C54.1489 12.0458 53.0064 12.5946 52.0625 13.719V12.4534C52.0625 12.3534 51.9823 12.2721 51.8829 12.2721H49.4086C49.3093 12.2721 49.229 12.3534 49.229 12.4534V26.5159C49.229 26.6152 49.3093 26.6974 49.4086 26.6974H51.8829C51.9823 26.6974 52.0625 26.6152 52.0625 26.5159V22.0775C53.0064 23.134 54.1489 23.6518 55.5418 23.6518C58.1307 23.6518 60.7521 21.659 60.7521 17.8494C60.7559 14.039 58.1345 12.0456 55.5437 12.0456L55.5418 12.0458ZM57.8747 17.8494C57.8747 19.7885 56.6805 21.1432 54.9686 21.1432C53.2777 21.1432 52.0014 19.7274 52.0014 17.8494C52.0014 15.9712 53.2777 14.5558 54.9686 14.5558C56.6519 14.5556 57.8747 15.9405 57.8747 17.8492V17.8494ZM67.468 12.0458C64.1339 12.0458 61.5221 14.613 61.5221 17.8909C61.5221 21.1336 64.1167 23.6729 67.4279 23.6729C70.7734 23.6729 73.3929 21.1145 73.3929 17.8494C73.3929 14.5954 70.7906 12.0462 67.468 12.0462V12.0458V12.0458ZM67.468 21.1623C65.6949 21.1623 64.3575 19.7369 64.3575 17.8485C64.3575 15.9514 65.6491 14.5748 67.4279 14.5748C69.2124 14.5748 70.5575 15.9995 70.5575 17.8899C70.5575 19.7866 69.2583 21.1623 67.468 21.1623V21.1623ZM80.512 12.2721H77.7893V9.48901C77.7893 9.38928 77.709 9.30788 77.6097 9.30788H75.1354C75.0361 9.30788 74.9539 9.38928 74.9539 9.48901V12.2721H73.7655C73.6661 12.2721 73.5859 12.3534 73.5859 12.4534V14.5793C73.5859 14.6791 73.6661 14.7607 73.7655 14.7607H74.9539V20.2624C74.9539 22.4844 76.0602 23.6117 78.244 23.6117C79.1306 23.6117 79.8662 23.4283 80.5597 23.0347C80.617 23.0041 80.6514 22.943 80.6514 22.878V20.8527C80.6514 20.7916 80.619 20.7324 80.5655 20.6999C80.512 20.6655 80.4451 20.6636 80.3897 20.6922C79.9139 20.9311 79.4535 21.0419 78.9376 21.0419C78.1447 21.0419 77.7893 20.6808 77.7893 19.8745V14.7616H80.512C80.6113 14.7616 80.6916 14.6802 80.6916 14.5803V12.4545C80.6954 12.3546 80.6151 12.2732 80.5139 12.2732L80.512 12.2721V12.2721ZM89.9964 12.2829V11.9411C89.9964 10.9356 90.3823 10.4871 91.2459 10.4871C91.7618 10.4871 92.1764 10.5895 92.6407 10.7443C92.698 10.7623 92.7573 10.7533 92.8031 10.7191C92.8509 10.6849 92.8776 10.63 92.8776 10.572V8.48745C92.8776 8.40778 92.828 8.33728 92.7496 8.31378C92.2605 8.16799 91.6338 8.01839 90.6938 8.01839C88.4105 8.01839 87.2011 9.30502 87.2011 11.7378V12.2614H86.0127C85.9133 12.2614 85.8312 12.3427 85.8312 12.4425V14.5793C85.8312 14.6791 85.9133 14.7607 86.0127 14.7607H87.2011V23.2449C87.2011 23.3461 87.2833 23.4264 87.3826 23.4264H89.855C89.9563 23.4264 90.0365 23.3461 90.0365 23.2449V14.7612H92.3465L95.885 23.2449C95.4837 24.1352 95.0882 24.3129 94.5494 24.3129C94.1138 24.3129 93.6534 24.183 93.1852 23.9251C93.1413 23.9021 93.0878 23.8983 93.0419 23.9117C92.9942 23.9289 92.9541 23.9633 92.9349 24.0091L92.0962 25.8491C92.0561 25.937 92.0904 26.0382 92.1745 26.0841C93.0496 26.5579 93.8387 26.7604 94.815 26.7604C96.6416 26.7604 97.6523 25.9083 98.5408 23.6194L102.832 12.5306C102.855 12.4748 102.847 12.4117 102.813 12.3622C102.78 12.3131 102.725 12.2835 102.666 12.2835H100.09C100.012 12.2835 99.9432 12.3326 99.9183 12.405L97.2797 19.9395L94.3909 12.4001C94.3641 12.3299 94.2972 12.2835 94.2227 12.2835H89.9964V12.2829V12.2829ZM84.4976 12.2721H82.0233C81.9239 12.2721 81.8418 12.3534 81.8418 12.4534V23.2449C81.8418 23.3461 81.9239 23.4264 82.0233 23.4264H84.4976C84.5969 23.4264 84.6791 23.3461 84.6791 23.2449V12.4541C84.6791 12.3542 84.5988 12.2728 84.4976 12.2728V12.2721ZM83.2747 7.35807C82.2946 7.35807 81.4998 8.15137 81.4998 9.13134C81.4998 10.1119 82.2946 10.9061 83.2747 10.9061C84.2549 10.9061 85.0478 10.1119 85.0478 9.13134C85.0478 8.15156 84.253 7.35807 83.2747 7.35807ZM104.945 15.742C103.967 15.742 103.205 14.9557 103.205 14.001C103.205 13.0462 103.977 12.251 104.955 12.251C105.933 12.251 106.695 13.0371 106.695 13.9911C106.695 14.9458 105.923 15.742 104.945 15.742ZM104.955 12.4241C104.063 12.4241 103.388 13.133 103.388 14.001C103.388 14.8686 104.059 15.5679 104.945 15.5679C105.838 15.5679 106.512 14.8596 106.512 13.9911C106.512 13.1234 105.841 12.4241 104.955 12.4241V12.4241ZM105.341 14.1701L105.834 14.8594H105.417L104.974 14.227H104.594V14.8594H104.246V13.0321H105.06C105.486 13.0321 105.765 13.2493 105.765 13.615C105.767 13.9146 105.593 14.0977 105.343 14.1701H105.341ZM105.047 13.3456H104.594V13.9236H105.047C105.272 13.9236 105.408 13.813 105.408 13.6343C105.408 13.4463 105.272 13.3456 105.047 13.3456V13.3456Z" fill="#282828"/>
</svg>
